images/social/youtube.svg

<svg width="48" height="40" viewBox="0 0 48 40" fill="none" xmlns="http://www.w3.org/2000/svg">
<path d="M31.2736 11.5H15.8408C13.9801 11.5 12.6666 13.0938 12.6666 14.9V24.9937C12.6666 26.9062 13.9801 28.5 15.8408 28.5H31.4925C33.1343 28.5 34.6666 26.9062 34.6666 25.1V14.9C34.4477 13.0938 33.1343 11.5 31.2736 11.5ZM20.3283 24.0375V15.9625L27.6617 20L20.3283 24.0375Z" fill="#83B3D3"/>
</svg>

<svg width="48" height="40" viewBox="0 0 48 40" fill="none" xmlns="http://www.w3.org/2000/svg"><path d="M31.27 11.5h-15.43c-1.86 0-3.17 1.6-3.17 3.4v10.1c0 1.9 1.31 3.5 3.17 3.5h15.65c1.64 0 3.18-1.6 3.18-3.4v-10.2c-.22-1.8-1.54-3.4-3.4-3.4Zm-10.94 12.54v-8.08l7.33 4.04-7.33 4.04Z" fill="#83B3D3"/></svg>
